; generated by Slic3r 1.0.0RC2 on 2014-08-05 at 14:31:03

; layer_height = 0.4
; perimeters = 3
; top_solid_layers = 3
; bottom_solid_layers = 3
; fill_density = 0.4
; perimeter_speed = 30
; infill_speed = 60
; travel_speed = 130
; nozzle_diameter = 0.5
; filament_diameter = 3
; extrusion_multiplier = 1
; perimeters extrusion width = 0.50mm
; infill extrusion width = 0.53mm
; solid infill extrusion width = 0.53mm
; top infill extrusion width = 0.53mm
; first layer extrusion width = 0.70mm

G21 ; set units to millimeters
M107
M104 S200 ; set temperature
G28 ; home all axes
G1 Z5 F5000 ; lift nozzle

M109 S200 ; wait for temperature to be reached
G90 ; use absolute coordinates
G92 E0
M82 ; use absolute distances for extrusion
G1 F1800.000 E-1.00000
G92 E0
G1 Z0.350 F7800.000
G1 X70.290 Y85.290 F7800.000
G1 E1.00000 F1800.000
G1 X71.300 Y84.460 E1.04253 F540.000
G1 X72.450 Y83.850 E1.08489
G1 X73.700 Y83.470 E1.12739
G1 X75.000 Y83.340 E1.16990
G1 X125.000 Y83.340 E2.79666
G1 X126.300 Y83.470 E2.83917
G1 X127.550 Y83.850 E2.88167
G1 X128.700 Y84.460 E2.92403
G1 X129.710 Y85.290 E2.96656
G1 X130.540 Y86.300 E3.00909
G1 X131.150 Y87.450 E3.05145
G1 X131.530 Y88.700 E3.09395
G1 X131.660 Y90.000 E3.13646
G1 X131.660 Y100.000 E3.46181
G1 X131.510 Y101.410 E3.50795
G1 X131.060 Y102.760 E3.55424
G1 X130.330 Y103.990 E3.60078
G1 X129.360 Y105.030 E3.64705
G1 X128.190 Y105.840 E3.69335
G1 X126.880 Y106.390 E3.73957
G1 X92.880 Y116.390 E4.89262
G1 X91.950 Y116.590 E4.92357
G1 X91.000 Y116.660 E4.95457
G1 X75.000 Y116.660 E5.47513
G1 X73.700 Y116.530 E5.51764
G1 X72.450 Y116.150 E5.56014
G1 X71.300 Y115.540 E5.60250
G1 X70.290 Y114.710 E5.64503
G1 X69.460 Y113.700 E5.68756
G1 X68.850 Y112.550 E5.72991
G1 X68.470 Y111.300 E5.77242
G1 X68.340 Y110.000 E5.81493
G1 X68.340 Y90.000 E6.46563
G1 X68.470 Y88.700 E6.50814
G1 X68.850 Y87.450 E6.55065
G1 X69.460 Y86.300 E6.59300
G1 X70.227 Y85.366 E6.63233
G1 F1800.000 E5.63233
G92 E0
G1 X76.664 Y91.664 F7800.000
G1 E1.00000 F1800.000
G1 X123.336 Y91.664 E2.51847 F540.000
G1 X123.336 Y98.336 E2.73554
G1 X89.336 Y98.336 E3.84173
G1 X89.336 Y108.336 E4.16709
G1 X76.664 Y108.336 E4.57936
G1 X76.664 Y91.763 E5.11857
G1 X76.007 Y91.007 F7800.000
G1 X123.993 Y91.007 E6.67980 F540.000
G1 X123.993 Y98.993 E6.93962
G1 X89.993 Y98.993 E8.04582
G1 X89.993 Y108.993 E8.37117
G1 X76.007 Y108.993 E8.82621
G1 X76.007 Y91.106 E9.40817
G1 X75.350 Y90.350 F7800.000
G1 X124.650 Y90.350 E11.01216 F378.000
G1 X124.650 Y99.650 E11.31474
G1 X90.650 Y99.650 E12.42093
G1 X90.650 Y109.650 E12.74628
G1 X75.350 Y109.650 E13.24407
G1 X75.350 Y90.449 E13.86880
G1 X75.919 Y90.679 F7800.000
G1 X77.173 Y107.892 F7800.000
G1 X77.108 Y107.827 E13.87183 F1080.000
G1 X77.108 Y106.896 E13.90217
G1 X78.104 Y107.892 E13.94811
G1 X79.035 Y107.892 E13.97845
G1 X77.108 Y105.965 E14.06730
G1 X77.108 Y105.034 E14.09764
G1 X79.966 Y107.892 E14.22939
G1 X80.897 Y107.892 E14.25973
G1 X77.108 Y104.103 E14.43439
G1 X77.108 Y103.172 E14.46473
G1 X81.828 Y107.892 E14.68229
G1 X82.759 Y107.892 E14.71263
G1 X77.108 Y102.241 E14.97310
G1 X77.108 Y101.310 E15.00344
G1 X83.690 Y107.892 E15.30682
G1 X84.620 Y107.892 E15.33716
G1 X77.108 Y100.380 E15.68345
G1 X77.108 Y99.449 E15.71378
G1 X85.551 Y107.892 E16.10298
G1 X86.482 Y107.892 E16.13332
G1 X77.108 Y98.518 E16.56541
G1 X77.108 Y97.587 E16.59575
G1 X87.413 Y107.892 E17.07076
G1 X88.344 Y107.892 E17.10109
G1 X77.108 Y96.656 E17.61901
G1 X77.108 Y95.725 E17.64934
G1 X88.892 Y107.510 E18.19253
G1 X88.892 Y106.579 E18.22287
G1 X77.108 Y94.794 E18.76606
G1 X77.108 Y93.863 E18.79640
G1 X88.892 Y105.648 E19.33959
G1 X88.892 Y104.717 E19.36993
G1 X77.108 Y92.933 E19.91311
G1 X77.214 Y92.108 E19.94022
G1 X88.892 Y103.786 E20.47852
G1 X88.892 Y102.856 E20.50886
G1 X78.144 Y92.108 E21.00426
G1 X79.075 Y92.108 E21.03460
G1 X88.892 Y101.925 E21.48709
G1 X88.892 Y100.994 E21.51743
G1 X80.006 Y92.108 E21.92701
G1 X80.937 Y92.108 E21.95735
G1 X88.892 Y100.063 E22.32403
G1 X88.892 Y99.132 E22.35437
G1 X81.868 Y92.108 E22.67814
G1 X82.799 Y92.108 E22.70848
G1 X88.892 Y98.201 E22.98935
G1 X89.515 Y97.892 E23.01198
G1 X83.730 Y92.108 E23.27862
G1 X84.661 Y92.108 E23.30896
G1 X90.445 Y97.892 E23.57559
G1 X91.376 Y97.892 E23.60593
G1 X85.591 Y92.108 E23.87256
G1 X86.522 Y92.108 E23.90290
G1 X92.307 Y97.892 E24.16954
G1 X93.238 Y97.892 E24.19988
G1 X87.453 Y92.108 E24.46651
G1 X88.384 Y92.108 E24.49685
G1 X94.169 Y97.892 E24.76348
G1 X95.100 Y97.892 E24.79382
G1 X89.315 Y92.108 E25.06046
G1 X90.246 Y92.108 E25.09080
G1 X96.031 Y97.892 E25.35743
G1 X96.962 Y97.892 E25.38777
G1 X91.177 Y92.108 E25.65440
G1 X92.108 Y92.108 E25.68474
G1 X97.892 Y97.892 E25.95138
G1 X98.823 Y97.892 E25.98172
G1 X93.039 Y92.108 E26.24835
G1 X93.969 Y92.108 E26.27869
G1 X99.754 Y97.892 E26.54532
G1 X100.685 Y97.892 E26.57566
G1 X94.900 Y92.108 E26.84230
G1 X95.831 Y92.108 E26.87264
G1 X101.616 Y97.892 E27.13927
G1 X102.547 Y97.892 E27.16961
G1 X96.762 Y92.108 E27.43624
G1 X97.693 Y92.108 E27.46658
G1 X103.478 Y97.892 E27.73322
G1 X104.409 Y97.892 E27.76356
G1 X98.624 Y92.108 E28.03019
G1 X99.555 Y92.108 E28.06053
G1 X105.339 Y97.892 E28.32716
G1 X106.270 Y97.892 E28.35750
G1 X100.486 Y92.108 E28.62414
G1 X101.416 Y92.108 E28.65448
G1 X107.201 Y97.892 E28.92111
G1 X108.132 Y97.892 E28.95145
G1 X102.347 Y92.108 E29.21808
G1 X103.278 Y92.108 E29.24842
G1 X109.063 Y97.892 E29.51506
G1 X109.994 Y97.892 E29.54540
G1 X104.209 Y92.108 E29.81203
G1 X105.140 Y92.108 E29.84237
G1 X110.925 Y97.892 E30.10900
G1 X111.856 Y97.892 E30.13934
G1 X106.071 Y92.108 E30.40598
G1 X107.002 Y92.108 E30.43632
G1 X112.786 Y97.892 E30.70295
G1 X113.717 Y97.892 E30.73329
G1 X107.933 Y92.108 E30.99992
G1 X108.863 Y92.108 E31.03026
G1 X114.648 Y97.892 E31.29690
G1 X115.579 Y97.892 E31.32724
G1 X109.794 Y92.108 E31.59387
G1 X110.725 Y92.108 E31.62421
G1 X116.510 Y97.892 E31.89084
G1 X117.441 Y97.892 E31.92118
G1 X111.656 Y92.108 E32.18782
G1 X112.587 Y92.108 E32.21816
G1 X118.372 Y97.892 E32.48479
G1 X119.303 Y97.892 E32.51513
G1 X113.518 Y92.108 E32.78176
G1 X114.449 Y92.108 E32.81210
G1 X120.233 Y97.892 E33.07874
G1 X121.164 Y97.892 E33.10908
G1 X115.380 Y92.108 E33.37571
G1 X116.310 Y92.108 E33.40605
G1 X122.095 Y97.892 E33.67268
G1 X122.892 Y97.759 E33.69903
G1 X117.241 Y92.108 E33.95950
G1 X118.172 Y92.108 E33.98984
G1 X122.892 Y96.828 E34.20740
G1 X122.892 Y95.897 E34.23774
G1 X119.103 Y92.108 E34.41239
G1 X120.034 Y92.108 E34.44273
G1 X122.892 Y94.966 E34.57448
G1 X122.892 Y94.035 E34.60482
G1 X120.965 Y92.108 E34.69367
G1 X121.896 Y92.108 E34.72401
G1 X122.892 Y93.104 E34.76994
G1 X122.892 Y92.173 E34.80028
G1 X122.827 Y92.108 E34.80331
M106 S251
G1 F1800.000 E33.80331
G92 E0
G1 Z0.750 F7800.000
G1 X123.750 Y91.250 F7800.000
G1 E1.00000 F1800.000
G1 X123.750 Y98.750 E1.21221 F1800
G1 X89.750 Y98.750 E2.17421
G1 X89.750 Y108.750 E2.45715
G1 X76.250 Y108.750 E2.83912
G1 X76.250 Y91.250 E3.33427
G1 X123.675 Y91.250 E4.67613
G1 X124.250 Y90.750 F7800.000
G1 X124.250 Y99.250 E4.91663 F1800
G1 X90.250 Y99.250 E5.87863
G1 X90.250 Y109.250 E6.16157
G1 X75.750 Y109.250 E6.57184
G1 X75.750 Y90.750 E7.09528
G1 X124.175 Y90.750 E8.46543
G1 X124.750 Y90.250 F7800.000
G1 X124.750 Y99.750 E8.73422 F1260
G1 X90.750 Y99.750 E9.69623
G1 X90.750 Y109.750 E9.97917
G1 X75.250 Y109.750 E10.41773
G1 X75.250 Y90.250 E10.96947
G1 X124.675 Y90.250 E12.36791
G1 X124.500 Y90.683 F7800.000
G1 X123.409 Y98.357 F7800.000
G1 X123.357 Y98.409 E12.37012 F3600
G1 X122.613 Y98.409 E12.39224
G1 X123.409 Y97.613 E12.42573
G1 X123.409 Y96.870 E12.44785
G1 X121.870 Y98.409 E12.51263
G1 X121.126 Y98.409 E12.53475
G1 X123.409 Y96.126 E12.63081
G1 X123.409 Y95.383 E12.65293
G1 X120.383 Y98.409 E12.78027
G1 X119.639 Y98.409 E12.80239
G1 X123.409 Y94.639 E12.96101
G1 X123.409 Y93.896 E12.98313
G1 X118.896 Y98.409 E13.17304
G1 X118.152 Y98.409 E13.19516
G1 X123.409 Y93.152 E13.41635
G1 X123.409 Y92.409 E13.43846
G1 X117.409 Y98.409 E13.69093
G1 X116.665 Y98.409 E13.71305
G1 X123.409 Y91.665 E13.99681
G1 X122.741 Y91.591 E14.01683
G1 X115.922 Y98.409 E14.30372
G1 X115.178 Y98.409 E14.32584
G1 X121.997 Y91.591 E14.61273
G1 X121.254 Y91.591 E14.63485
G1 X114.435 Y98.409 E14.92175
G1 X113.691 Y98.409 E14.94387
G1 X120.510 Y91.591 E15.23076
G1 X119.766 Y91.591 E15.25288
G1 X112.948 Y98.409 E15.53977
G1 X112.204 Y98.409 E15.56189
G1 X119.023 Y91.591 E15.84878
G1 X118.279 Y91.591 E15.87090
G1 X111.461 Y98.409 E16.15780
G1 X110.717 Y98.409 E16.17992
G1 X117.536 Y91.591 E16.46681
G1 X116.792 Y91.591 E16.48893
G1 X109.974 Y98.409 E16.77582
G1 X109.230 Y98.409 E16.79794
G1 X116.049 Y91.591 E17.08483
G1 X115.305 Y91.591 E17.10695
G1 X108.487 Y98.409 E17.39385
G1 X107.743 Y98.409 E17.41597
G1 X114.562 Y91.591 E17.70286
G1 X113.818 Y91.591 E17.72498
G1 X107.000 Y98.409 E18.01187
G1 X106.256 Y98.409 E18.03399
G1 X113.075 Y91.591 E18.32088
G1 X112.331 Y91.591 E18.34300
G1 X105.513 Y98.409 E18.62990
G1 X104.769 Y98.409 E18.65202
G1 X111.588 Y91.591 E18.93891
G1 X110.844 Y91.591 E18.96103
G1 X104.026 Y98.409 E19.24792
G1 X103.282 Y98.409 E19.27004
G1 X110.101 Y91.591 E19.55693
G1 X109.357 Y91.591 E19.57905
G1 X102.539 Y98.409 E19.86595
G1 X101.795 Y98.409 E19.88807
G1 X108.614 Y91.591 E20.17496
G1 X107.870 Y91.591 E20.19708
G1 X101.052 Y98.409 E20.48397
G1 X100.308 Y98.409 E20.50609
G1 X107.127 Y91.591 E20.79298
G1 X106.383 Y91.591 E20.81510
G1 X99.565 Y98.409 E21.10200
G1 X98.821 Y98.409 E21.12412
G1 X105.640 Y91.591 E21.41101
G1 X104.896 Y91.591 E21.43313
G1 X98.078 Y98.409 E21.72002
G1 X97.334 Y98.409 E21.74214
G1 X104.153 Y91.591 E22.02903
G1 X103.409 Y91.591 E22.05115
G1 X96.591 Y98.409 E22.33805
G1 X95.847 Y98.409 E22.36017
G1 X102.666 Y91.591 E22.64706
G1 X101.922 Y91.591 E22.66918
G1 X95.104 Y98.409 E22.95607
G1 X94.360 Y98.409 E22.97819
G1 X101.179 Y91.591 E23.26508
G1 X100.435 Y91.591 E23.28720
G1 X93.617 Y98.409 E23.57410
G1 X92.873 Y98.409 E23.59622
G1 X99.692 Y91.591 E23.88311
G1 X98.948 Y91.591 E23.90523
G1 X92.130 Y98.409 E24.19212
G1 X91.386 Y98.409 E24.21424
G1 X98.205 Y91.591 E24.50113
G1 X97.461 Y91.591 E24.52325
G1 X90.643 Y98.409 E24.81015
G1 X89.899 Y98.409 E24.83227
G1 X96.718 Y91.591 E25.11916
G1 X95.974 Y91.591 E25.14128
G1 X79.155 Y108.409 E25.84891
G1 X78.412 Y108.409 E25.87103
G1 X95.231 Y91.591 E26.57866
G1 X94.487 Y91.591 E26.60078
G1 X77.668 Y108.409 E27.30841
G1 X76.925 Y108.409 E27.33053
G1 X93.744 Y91.591 E28.03816
G1 X93.000 Y91.591 E28.06028
G1 X76.591 Y108.000 E28.75070
G1 X76.591 Y107.257 E28.77282
G1 X92.257 Y91.591 E29.43196
G1 X91.513 Y91.591 E29.45408
G1 X76.591 Y106.513 E30.08193
G1 X76.591 Y105.770 E30.10405
G1 X90.770 Y91.591 E30.70062
G1 X90.026 Y91.591 E30.72274
G1 X76.591 Y105.026 E31.28803
G1 X76.591 Y104.283 E31.31015
G1 X89.283 Y91.591 E31.84415
G1 X88.539 Y91.591 E31.86627
G1 X76.591 Y103.539 E32.36900
G1 X76.591 Y102.796 E32.39112
G1 X87.796 Y91.591 E32.86256
G1 X87.052 Y91.591 E32.88468
G1 X76.591 Y102.052 E33.32484
G1 X76.591 Y101.309 E33.34696
G1 X86.309 Y91.591 E33.75583
G1 X85.565 Y91.591 E33.77795
G1 X76.591 Y100.565 E34.15555
G1 X76.591 Y99.822 E34.17767
G1 X84.822 Y91.591 E34.52398
G1 X84.078 Y91.591 E34.54610
G1 X76.591 Y99.078 E34.86113
G1 X76.591 Y98.335 E34.88325
G1 X83.335 Y91.591 E35.16700
G1 X82.591 Y91.591 E35.18912
G1 X76.591 Y97.591 E35.44158
G1 X76.591 Y96.848 E35.46370
G1 X81.848 Y91.591 E35.68489
G1 X81.104 Y91.591 E35.70701
G1 X76.591 Y96.104 E35.89691
G1 X76.591 Y95.361 E35.91903
G1 X80.361 Y91.591 E36.07765
G1 X79.617 Y91.591 E36.09977
G1 X76.591 Y94.617 E36.22710
G1 X76.591 Y93.874 E36.24922
G1 X78.874 Y91.591 E36.34528
G1 X78.130 Y91.591 E36.36740
G1 X76.591 Y93.130 E36.43217
G1 X76.591 Y92.387 E36.45429
G1 X77.387 Y91.591 E36.48778
G1 X76.643 Y91.591 E36.50990
G1 X76.591 Y91.643 E36.51211
G1 X89.409 Y98.899 F7800.000
G1 X79.899 Y108.409 E36.91225 F3600
G1 X80.643 Y108.409 E36.93437
G1 X89.409 Y99.643 E37.30323
G1 X89.409 Y100.386 E37.32535
G1 X81.386 Y108.409 E37.66292
G1 X82.130 Y108.409 E37.68504
G1 X89.409 Y101.130 E37.99133
G1 X89.409 Y101.873 E38.01345
G1 X82.873 Y108.409 E38.28846
G1 X83.617 Y108.409 E38.31058
G1 X89.409 Y102.617 E38.55431
G1 X89.409 Y103.360 E38.57643
G1 X84.360 Y108.409 E38.78888
G1 X85.104 Y108.409 E38.81100
G1 X89.409 Y104.104 E38.99216
G1 X89.409 Y104.847 E39.01428
G1 X85.847 Y108.409 E39.16416
G1 X86.591 Y108.409 E39.18628
G1 X89.409 Y105.591 E39.30488
G1 X89.409 Y106.334 E39.32700
G1 X87.334 Y108.409 E39.41432
G1 X88.078 Y108.409 E39.43644
G1 X89.409 Y107.078 E39.49247
G1 X89.409 Y107.821 E39.51459
G1 X88.821 Y108.409 E39.53934
M106 S251
G1 F1800.000 E38.53934
G92 E0
G1 Z1.150 F7800.000
G1 X89.750 Y108.750 F7800.000
G1 E1.00000 F1800.000
G1 X76.250 Y108.750 E1.38197 F1800
G1 X76.250 Y91.250 E1.87712
G1 X123.750 Y91.250 E3.22110
G1 X123.750 Y98.750 E3.43330
G1 X89.750 Y98.750 E4.39531
G1 X89.750 Y108.675 E4.67613
G1 X90.250 Y109.250 F7800.000
G1 X75.750 Y109.250 E5.08639 F1800
G1 X75.750 Y90.750 E5.60983
G1 X124.250 Y90.750 E6.98210
G1 X124.250 Y99.250 E7.22260
G1 X90.250 Y99.250 E8.18461
G1 X90.250 Y109.175 E8.46543
G1 X90.750 Y109.750 F7800.000
G1 X75.250 Y109.750 E8.90399 F1260
G1 X75.250 Y90.250 E9.45573
G1 X124.750 Y90.250 E10.85629
G1 X124.750 Y99.750 E11.12508
G1 X90.750 Y99.750 E12.08709
G1 X90.750 Y109.675 E12.36791
G1 X90.317 Y109.500 F7800.000
G1 X76.643 Y108.409 F7800.000
G1 X76.591 Y108.357 E12.37009 F3600
G1 X76.591 Y107.618 E12.39193
G1 X77.382 Y108.409 E12.42500
G1 X78.121 Y108.409 E12.44683
G1 X76.591 Y106.879 E12.51078
G1 X76.591 Y106.141 E12.53262
G1 X78.859 Y108.409 E12.62746
G1 X79.598 Y108.409 E12.64929
G1 X76.591 Y105.402 E12.77501
G1 X76.591 Y104.663 E12.79685
G1 X80.337 Y108.409 E12.95345
G1 X81.076 Y108.409 E12.97529
G1 X76.591 Y103.924 E13.16277
G1 X76.591 Y103.186 E13.18461
G1 X81.814 Y108.409 E13.40297
G1 X82.553 Y108.409 E13.42481
G1 X76.591 Y102.447 E13.67406
G1 X76.591 Y101.708 E13.69590
G1 X83.292 Y108.409 E13.97603
G1 X84.031 Y108.409 E13.99787
G1 X76.591 Y100.969 E14.30889
G1 X76.591 Y100.231 E14.33072
G1 X84.769 Y108.409 E14.67262
G1 X85.508 Y108.409 E14.69446
G1 X76.591 Y99.492 E15.06724
G1 X76.591 Y98.753 E15.08908
G1 X86.247 Y108.409 E15.49275
G1 X86.986 Y108.409 E15.51458
G1 X76.591 Y98.014 E15.94913
G1 X76.591 Y97.276 E15.97097
G1 X87.724 Y108.409 E16.43640
G1 X88.463 Y108.409 E16.45824
G1 X76.591 Y96.537 E16.95456
G1 X76.591 Y95.798 E16.97640
G1 X89.202 Y108.409 E17.50359
G1 X89.409 Y107.878 E17.52045
G1 X76.591 Y95.059 E18.05633
G1 X76.591 Y94.321 E18.07816
G1 X89.409 Y107.139 E18.61403
G1 X89.409 Y106.400 E18.63587
G1 X76.591 Y93.582 E19.17174
G1 X76.591 Y92.843 E19.19358
G1 X89.409 Y105.662 E19.72945
G1 X89.409 Y104.923 E19.75129
G1 X76.591 Y92.104 E20.28716
G1 X76.816 Y91.591 E20.30374
G1 X89.409 Y104.184 E20.83020
G1 X89.409 Y103.445 E20.85204
G1 X77.555 Y91.591 E21.34762
G1 X78.293 Y91.591 E21.36946
G1 X89.409 Y102.707 E21.83416
G1 X89.409 Y101.968 E21.85599
G1 X79.032 Y91.591 E22.28981
G1 X79.771 Y91.591 E22.31165
G1 X89.409 Y101.229 E22.71458
G1 X89.409 Y100.490 E22.73641
G1 X80.510 Y91.591 E23.10846
G1 X81.248 Y91.591 E23.13030
G1 X89.409 Y99.752 E23.47146
G1 X89.409 Y99.013 E23.49330
G1 X81.987 Y91.591 E23.80358
G1 X82.726 Y91.591 E23.82542
G1 X89.544 Y98.409 E24.11046
G1 X90.283 Y98.409 E24.13230
G1 X83.465 Y91.591 E24.41734
G1 X84.203 Y91.591 E24.43918
G1 X91.022 Y98.409 E24.72422
G1 X91.761 Y98.409 E24.74606
G1 X84.942 Y91.591 E25.03110
G1 X85.681 Y91.591 E25.05294
G1 X92.499 Y98.409 E25.33798
G1 X93.238 Y98.409 E25.35982
G1 X86.420 Y91.591 E25.64486
G1 X87.158 Y91.591 E25.66670
G1 X93.977 Y98.409 E25.95174
G1 X94.716 Y98.409 E25.97358
G1 X87.897 Y91.591 E26.25863
G1 X88.636 Y91.591 E26.28046
G1 X95.454 Y98.409 E26.56551
G1 X96.193 Y98.409 E26.58734
G1 X89.375 Y91.591 E26.87239
G1 X90.113 Y91.591 E26.89423
G1 X96.932 Y98.409 E27.17927
G1 X97.671 Y98.409 E27.20111
G1 X90.852 Y91.591 E27.48615
G1 X91.591 Y91.591 E27.50799
G1 X98.409 Y98.409 E27.79303
G1 X99.148 Y98.409 E27.81487
G1 X92.330 Y91.591 E28.09991
G1 X93.068 Y91.591 E28.12175
G1 X99.887 Y98.409 E28.40679
G1 X100.626 Y98.409 E28.42863
G1 X93.807 Y91.591 E28.71367
